T: Road To Lisdoonvarna, The
M: 4/4
L: 1/8
K: Dmix
|DAAD ABcA|GE E2 cEGA|DAAD ABcA|BcAG FD D2|
DAAD ABcA|(3cBA (3BAG (3AGF (3GFE|DAAD ABcA|BcAG FD D2||
|d2 ed ^cA A2|BGGB ^cA A2|d2 ed ^cAA^c|BcAG FD D2|
d2 ed ^cA A2|BGGB ^cA A2|defd ^cAA^c|BcAG FD D2||
